X:1
T:Standin In The Need of Prayer
T:Titulo
T:Copyright 1881 by The Riverside Press
T:Rodeheaver's Plantation Melodies
T:Rodeheaver's Plantation Melodies
Z:Rodeheaver's Plantation Melodies
%%score [ 1 2 3 4 ]
L:1/8
Q:1/4=70
M:2/4
K:G
V:1 treble nm="Soprano" snm="S."
V:2 treble nm="Alto" snm="A."
V:3 bass nm="Tenor" snm="T."
V:4 bass nm="Bass" snm="B."
V:1
 BG | E3 G | GG GE | D3 G | GG BG | E3 G | G G2 B | (3BAG E<G | G2 || B>B | dB BA | G2 B2 | %12
 AA B>A | G2 B>B | dG GG/G/ | G G2 B | (3BAG E<G | G2!D.C.! |] %18
V:2
 BG | E3 G | GG GE | D3 G | GG BG | E3 G | G G2 B | (3BAG E<G | G2 || G>G | BG GF | G2 G2 | %12
w: Just be-|hold that|num- ber. Just be-|hold that|num- ber Just be-|hold that|num- ber From|ev- e- ry grave- *|yard.|Going to|meet the broth- ers|there. That|
 FF G>F | G2 G>G | BG GG/G/ | G G2 B | (3BAG E<G | G2 |] %18
w: used to join in|prayer. Go- ing|up thro' great trib- u-|la- tion From|e- ve- ry grave- *|yard|
V:3
 B,G, | E,3 G, | G,G, G,E, | D,3 G, | G,G, B,G, | E,3 G, | G, G,2 B, | (3B,A,G, E,<G, | G,2 || %9
 D>D | DD DC | B,2 D2 | DD D>C | B,2 D>D | DB, B,B,/B,/ | B, B,2 B, | (3B,A,G, E,<G, | G,2 |] %18
V:4
 B,G, | E,3 G, | G,G, G,E, | D,3 G, | G,G, B,G, | E,3 G, | G, G,2 B, | (3B,A,G, E,<G, | G,2 || %9
 G,>G, | G,G, D,D, | G,2 G,2 | D,D, D,>D, | G,2 G,>G, | G,G, G,G,/G,/ | G, G,2 B, | %16
 (3B,A,G, E,<G, | G,2 |] %18

